X:1
T:Lily Munro
M:2/2
L:1/4
K:E
 F| G G G F| G B z c| d c B G| c2 z| c| d c B G| F G z G| B3/2 G/2 FF/2-G/2|\
 D2 z| D/4- F3/4| C3/2 C/2C/2-D/2 F| G2 z G| G3/2 C/2 CC/2-D/2| C2 z||\
